static/images/empty-states/groups.svg

<svg xmlns="http://www.w3.org/2000/svg" viewBox="0 0 123.48 131.46"><rect width="123.48" height="131.46" rx="13.2" fill="#201e1d" opacity=".15"/><rect x="11" y="9.08" width="101.17" height="111.59" rx="11.39" fill="#fff"/><path d="M112.17,23.92V20.46A11.39,11.39,0,0,0,100.79,9.08H22.38A11.39,11.39,0,0,0,11,20.46v3.46Z" fill="#c21d47"/><path d="M112.24 28.52l-101.28-.25v-8.5l101.28.25v8.5z" fill="#201e1d" opacity=".15"/><g fill="#7bdb86"><path d="M99.85 43.67H55.2a3.11 3.11 0 0 0-3.11 3.11v24.3a3.11 3.11 0 0 0 3.11 3.11H84.6l8.17 8.17V74.2h7.07a3.11 3.11 0 0 0 3.15-3.11v-24.3a3.11 3.11 0 0 0-3.15-3.11z"/><path d="M99.85 43.67H77.38V74.2h7.23l8.17 8.17V74.2h7.07a3.11 3.11 0 0 0 3.15-3.11v-24.3a3.11 3.11 0 0 0-3.15-3.11z"/></g><g fill="#3caf52"><path d="M26.24 63.64H70.9a3.11 3.11 0 0 1 3.1 3.11v24.3a3.11 3.11 0 0 1-3.11 3.11h-29.4l-8.17 8.17v-8.17h-7.07a3.11 3.11 0 0 1-3.11-3.11v-24.3a3.11 3.11 0 0 1 3.11-3.11z"/><path d="M70.9 63.64H47v30.53h23.9a3.11 3.11 0 0 0 3.1-3.11v-24.3a3.11 3.11 0 0 0-3.1-3.11z"/></g><circle cx="63.03" cy="68.02" r="18.78" fill="#7bdb86"/><g fill="#179933"><path d="M63 49.24h-.38V86.8H63a18.78 18.78 0 1 0 0-37.56z"/><path d="M59.5 79.33a1.67 1.67 0 0 1-1.35-2.65l5.1-7H59.5A1.67 1.67 0 0 1 58.15 67l7-9.64a1.67 1.67 0 1 1 2.69 2l-5.1 7h3.76A1.67 1.67 0 0 1 67.9 69l-7 9.64a1.66 1.66 0 0 1-1.4.69z"/></g><path d="M66.55 66.35H62.8l5.1-7a1.67 1.67 0 1 0-2.69-2l-2.56 3.5v8.8h.62l-.62.84v5.66L67.9 69a1.67 1.67 0 0 0-1.35-2.65z" fill="#9ee8a4"/></svg>

<svg xmlns="http://www.w3.org/2000/svg" viewBox="0 0 123.48 131.46"><defs><style>.cls-1{fill:#201e1d;opacity:0.15;}.cls-2{fill:#fff;}.cls-3{fill:#c21d47;}.cls-4{fill:#7bdb86;}.cls-5{fill:#3caf52;}.cls-6{fill:#179933;}.cls-7{fill:#9ee8a4;}</style></defs><title>Gruppen</title><g id="Layer_2" data-name="Layer 2"><g id="Ebene_1_Kopie" data-name="Ebene 1 Kopie"><rect class="cls-1" width="123.48" height="131.46" rx="13.2" ry="13.2"/><rect class="cls-2" x="11" y="9.08" width="101.17" height="111.59" rx="11.39" ry="11.39"/><path class="cls-3" d="M112.17,23.92V20.46A11.39,11.39,0,0,0,100.79,9.08H22.38A11.39,11.39,0,0,0,11,20.46v3.46Z"/><polygon class="cls-1" points="112.24 28.52 10.96 28.27 10.96 19.76 112.24 20.01 112.24 28.52"/><path class="cls-4" d="M99.85,43.67H55.19a3.11,3.11,0,0,0-3.11,3.11V71.09a3.11,3.11,0,0,0,3.11,3.11H84.61l8.17,8.17V74.2h7.07A3.11,3.11,0,0,0,103,71.09V46.78A3.11,3.11,0,0,0,99.85,43.67Z"/><path class="cls-4" d="M99.85,43.67H77.38V74.2h7.23l8.17,8.17V74.2h7.07A3.11,3.11,0,0,0,103,71.09V46.78A3.11,3.11,0,0,0,99.85,43.67Z"/><path class="cls-5" d="M26.24,63.64H70.9A3.11,3.11,0,0,1,74,66.75V91.06a3.11,3.11,0,0,1-3.11,3.11H41.48l-8.17,8.17V94.17H26.24a3.11,3.11,0,0,1-3.11-3.11V66.75A3.11,3.11,0,0,1,26.24,63.64Z"/><path class="cls-5" d="M70.9,63.64H47V94.17H70.9A3.11,3.11,0,0,0,74,91.06V66.75A3.11,3.11,0,0,0,70.9,63.64Z"/><circle class="cls-4" cx="63.03" cy="68.02" r="18.78"/><path class="cls-6" d="M63,49.24h-.38V86.79H63a18.78,18.78,0,1,0,0-37.56Z"/><path class="cls-6" d="M59.5,79.33a1.67,1.67,0,0,1-1.35-2.65l5.11-7H59.5A1.67,1.67,0,0,1,58.15,67l7-9.64a1.67,1.67,0,1,1,2.69,2l-5.11,7h3.76A1.67,1.67,0,0,1,67.9,69l-7,9.64A1.66,1.66,0,0,1,59.5,79.33Z"/><path class="cls-7" d="M66.55,66.35H62.79l5.11-7a1.67,1.67,0,1,0-2.69-2l-2.56,3.5v8.8h.62l-.62.84v5.66L67.9,69a1.67,1.67,0,0,0-1.35-2.65Z"/></g></g></svg>
